templates/main/source/images/block-1-2.svg

<?xml version="1.0" encoding="utf-8"?>
<svg width="49px" height="49px" viewbox="0 0 49 49" version="1.1" xmlns:xlink="http://www.w3.org/1999/xlink" xmlns="http://www.w3.org/2000/svg">
  <g id="Group-12" transform="translate(0.5 0.5)">
    <path d="M0.75 18L0.75 0L11.25 3L0.75 18ZM16.5 32.25C16.5 36.8064 12.8063 40.5 8.25 40.5C3.69365 40.5 0 36.8064 0 32.25C0 27.6937 3.69365 24 8.25 24C12.8063 24 16.5 27.6937 16.5 32.25Z" transform="translate(23.25 6)" id="Combined-Shape" fill="#8C0014" fill-opacity="0.14901961" fill-rule="evenodd" stroke="none" />
    <path d="M40.8889 7.06032C36.5206 2.69206 30.527 0 23.9238 0C17.3206 0 11.327 2.69206 7.00952 7.00952C2.69206 11.327 0 17.3206 0 23.9238C0 30.3747 2.53968 36.216 6.70476 40.5335C10.8698 44.8509 16.6095 47.5937 23.0603 47.8476C23.5683 47.8476 24.0254 47.4413 24.0254 46.9333C24.0254 46.4254 23.619 45.9683 23.1111 45.9683C17.219 45.7651 11.8857 43.2254 8.07619 39.2636C4.26667 35.2508 1.93016 29.8668 1.93016 23.9238C1.93016 17.8286 4.41905 12.3429 8.38095 8.33016C12.3429 4.36825 17.8286 1.93016 23.9238 1.93016C30.019 1.93016 35.5048 4.41905 39.4667 8.38095C43.4286 12.3429 45.9175 17.8794 45.9175 23.9746C45.9175 25.9048 45.6635 27.7841 45.2063 29.6128C44.7492 31.3906 44.0381 33.1684 43.073 34.7937C42.819 35.2508 42.9714 35.8095 43.4286 36.1143C43.8857 36.3683 44.4444 36.216 44.7492 35.7587C45.7651 33.9809 46.527 32.0508 47.0857 30.0698C47.5936 28.089 47.8984 26.0063 47.8984 23.9746C47.8984 17.3714 45.2063 11.3778 40.8889 7.06032ZM23.873 5.23176C18.7429 5.23176 14.0698 7.3143 10.6667 10.7175C7.31429 14.0699 5.18095 18.7429 5.18095 23.9238C5.18095 28.0889 6.55238 32 8.93968 35.2C11.327 38.3492 14.7302 40.7873 18.7429 41.9048C19.2508 42.0572 19.7587 41.7524 19.9111 41.2445C20.0635 40.7365 19.7587 40.2286 19.2508 40.0762C15.6444 39.0603 12.5968 36.8762 10.4635 34.0826C8.48254 31.4921 7.31429 28.3429 7.11111 24.9397L9.49841 24.9397C10.0063 24.9397 10.4635 24.5333 10.4635 23.9746C10.4635 23.4667 10.0571 23.0095 9.49841 23.0095L7.11111 23.0095C7.36508 18.7429 9.14286 14.9333 11.9873 12.1397C14.8317 9.29525 18.6413 7.51747 22.8571 7.2635L22.8571 9.65081C22.8571 10.1587 23.2635 10.6159 23.8222 10.6159C24.3302 10.6159 24.7873 10.2095 24.7873 9.65081L24.7873 7.2635C29.054 7.51747 32.8635 9.29525 35.6571 12.1397C38.5016 14.9841 40.2794 18.7937 40.5333 23.0095L38.146 23.0095C37.6381 23.0095 37.181 23.4159 37.181 23.9746C37.181 24.4825 37.5873 24.9397 38.146 24.9397L40.5333 24.9397C40.4825 25.4476 40.4825 25.9556 40.381 26.4635C40.2794 27.2762 40.0762 28.0889 39.8222 28.9016C39.6698 29.4095 39.9746 29.9175 40.4318 30.0699C41.0921 30.2222 41.6 29.9175 41.7524 29.4095C42.0064 28.4952 42.2603 27.581 42.3619 26.7175C42.5143 25.8032 42.5651 24.8889 42.5651 23.9238C42.5651 18.7937 40.4825 14.1206 37.0794 10.7175C33.727 7.36509 29.054 5.23176 23.873 5.23176ZM22.9588 13.308C22.9588 12.7492 23.4159 12.3429 23.9238 12.3429C24.4318 12.3429 24.8889 12.8 24.838 13.308L24.838 21.0794C25.2953 21.2318 25.7016 21.4858 26.0064 21.7905C26.5143 22.3492 26.8697 23.1111 26.8697 23.9238C26.8697 24.7365 26.5651 25.4985 26.0064 26.0572C25.4476 26.5651 24.6857 26.9207 23.873 26.9207C23.0603 26.9207 22.2984 26.6159 21.7397 26.0572C21.4349 25.7524 21.181 25.3461 21.0286 24.8889L15.2381 24.8889C14.6794 24.8889 14.273 24.4318 14.273 23.9238C14.273 23.3651 14.7302 22.9588 15.2381 22.9588L21.0794 22.9588C21.2318 22.5016 21.4857 22.0953 21.7905 21.7905L21.8413 21.7397C22.1461 21.435 22.5524 21.2318 22.9588 21.0794L22.9588 13.308ZM24.6857 24.7365C24.8889 24.5334 25.0413 24.2286 25.0413 23.9238C25.0413 23.6191 24.9397 23.3651 24.7365 23.1619C24.584 22.9588 24.2794 22.8572 23.9746 22.8572C23.6699 22.8572 23.4159 22.9588 23.2127 23.1619L23.1619 23.2127C22.9588 23.4159 22.8572 23.6699 22.8572 23.9746C22.8572 24.2794 22.9588 24.5334 23.1619 24.7365C23.3143 24.9397 23.6191 25.0413 23.9238 25.0413C24.2286 25.0413 24.4826 24.9397 24.6857 24.7365ZM31.7968 28.3429C29.1048 28.3429 26.6667 29.4095 24.9397 31.1873C23.1619 32.9651 22.0952 35.4032 22.0952 38.0445C22.0952 40.7365 23.1619 43.1746 24.9397 44.9016C26.6667 46.6286 29.1048 47.7461 31.7968 47.7461C34.4889 47.7461 36.927 46.6794 38.654 44.9016C40.4317 43.1238 41.4984 40.6857 41.4984 38.0445C41.4984 35.3524 40.4317 32.9143 38.654 31.1873C36.8762 29.4095 34.4381 28.3429 31.7968 28.3429ZM37.3333 43.5302C35.9111 44.9524 33.981 45.8159 31.7968 45.8159C29.6127 45.8159 27.6825 44.9524 26.2603 43.5302C24.8381 42.108 23.9746 40.1778 23.9746 37.9937C23.9746 35.8603 24.8381 33.8794 26.2603 32.4572C27.6825 31.0349 29.6127 30.1715 31.7968 30.1715C33.981 30.1715 35.9111 31.0349 37.3333 32.4572C38.7556 33.8794 39.619 35.8095 39.619 37.9937C39.619 40.1778 38.7556 42.108 37.3333 43.5302ZM34.1981 42.4643C33.7048 42.9578 32.9217 43.373 31.7158 43.373C30.69 43.373 29.9304 43.1537 29.2726 42.5975C28.8028 42.1901 28.4348 41.5712 28.4348 40.8896C28.4348 40.5605 28.5366 40.3098 28.7167 40.1218C28.8889 39.9416 29.1473 39.8476 29.4292 39.8476C29.7346 39.8476 29.9069 39.9103 30.0635 40.0513C30.228 40.1923 30.3141 40.3177 30.4551 40.6781C30.7056 41.3048 31.0658 41.5242 31.7158 41.5242C32.1465 41.5242 32.4597 41.4223 32.7103 41.1716C33.0705 40.8112 33.141 40.2237 33.141 39.5107C33.141 38.2338 32.7808 37.513 31.7628 37.513C31.199 37.513 30.8309 37.6775 30.5334 38.0066C30.4081 38.1476 30.2828 38.2573 30.1262 38.3513C29.9774 38.4375 29.8286 38.4766 29.578 38.4766C29.2961 38.4766 29.069 38.414 28.8654 38.2103C28.6618 38.0066 28.5679 37.6932 28.5679 37.3407L28.5682 33.2694C28.5707 32.9889 28.5961 32.6589 28.8498 32.4051C29.1317 32.123 29.5075 32.123 29.8051 32.123L33.7204 32.123C34.1824 32.123 34.3625 32.1387 34.5583 32.2406C34.8245 32.3816 35.0046 32.6636 35.0046 33.0475C35.0046 33.4314 34.8245 33.7134 34.5583 33.8544C34.3625 33.9563 34.1824 33.9719 33.7204 33.9719L30.4159 33.9719L30.4159 36.3379C30.737 36.048 31.3321 35.7895 32.1073 35.7895C33.0235 35.7895 33.7361 36.0872 34.1824 36.5337C35.0516 37.4033 35.1848 38.461 35.1848 39.5107C35.1848 40.7799 35.0203 41.6417 34.1981 42.4643Z" transform="translate(7.407408E-13 0.12695873)" id="Combined-Shape" fill="#8C0014" fill-rule="evenodd" stroke="none" />
  </g>
</svg>

<svg width="49" height="49" xmlns:xlink="http://www.w3.org/1999/xlink" xmlns="http://www.w3.org/2000/svg"><g id="Group-12" transform="translate(.5 .5)" fill="#8C0014" fill-rule="evenodd" stroke="none"><path d="M.75 18V0l10.5 3L.75 18zM16.5 32.25a8.25 8.25 0 11-16.5 0 8.25 8.25 0 0116.5 0z" transform="translate(23.25 6)" id="Combined-Shape" fill-opacity=".149"/><path d="M40.889 7.06C36.52 2.692 30.527 0 23.924 0A23.88 23.88 0 007.01 7.01 23.88 23.88 0 000 23.924c0 6.45 2.54 12.292 6.705 16.61a23.911 23.911 0 0016.355 7.314c.508 0 .965-.407.965-.915s-.406-.965-.914-.965a21.898 21.898 0 01-15.035-6.704c-3.81-4.013-6.146-9.397-6.146-15.34 0-6.095 2.49-11.581 6.451-15.594 3.962-3.962 9.448-6.4 15.543-6.4 6.095 0 11.58 2.49 15.543 6.451a22.037 22.037 0 016.45 15.594c0 1.93-.254 3.81-.71 5.638a19.924 19.924 0 01-2.134 5.18c-.254.458-.102 1.017.356 1.321.457.254 1.015.102 1.32-.355 1.016-1.778 1.778-3.708 2.337-5.69.508-1.98.812-4.063.812-6.094a23.88 23.88 0 00-7.01-16.915zM23.873 5.232c-5.13 0-9.803 2.082-13.206 5.485C7.314 14.07 5.18 18.743 5.18 23.925A18.807 18.807 0 008.94 35.2c2.387 3.15 5.79 5.587 9.803 6.705.508.152 1.016-.153 1.168-.66.152-.508-.152-1.016-.66-1.169-3.607-1.016-6.654-3.2-8.788-5.993-1.98-2.59-3.149-5.74-3.352-9.143h2.387a.965.965 0 100-1.93H7.111c.254-4.267 2.032-8.077 4.876-10.87a16.721 16.721 0 0110.87-4.877v2.388a.965.965 0 101.93 0V7.263c4.267.254 8.077 2.032 10.87 4.877a16.72 16.72 0 014.876 10.87h-2.387a.964.964 0 100 1.93h2.387c-.05.508-.05 1.016-.152 1.523-.102.813-.305 1.626-.559 2.439a.953.953 0 00.61 1.168c.66.152 1.168-.152 1.32-.66.254-.915.508-1.829.61-2.692.152-.915.203-1.83.203-2.794 0-5.13-2.082-9.803-5.486-13.207-3.352-3.352-8.025-5.485-13.206-5.485zm-.914 8.076c0-.559.457-.965.965-.965s.965.457.914.965v7.771c.457.153.864.407 1.168.712.508.558.864 1.32.864 2.133s-.305 1.575-.864 2.133c-.558.508-1.32.864-2.133.864a2.994 2.994 0 01-2.133-.864 3.014 3.014 0 01-.711-1.168h-5.79a.964.964 0 110-1.93h5.84c.153-.457.407-.864.712-1.168l.05-.051c.305-.305.711-.508 1.118-.66v-7.772zm1.727 11.428c.203-.203.355-.507.355-.812a1.03 1.03 0 00-.305-.762c-.152-.203-.457-.305-.761-.305-.305 0-.56.102-.762.305l-.051.05a1.034 1.034 0 00-.305.763c0 .304.102.558.305.761.152.204.457.305.762.305s.559-.101.762-.305zm7.11 3.607c-2.691 0-5.13 1.067-6.856 2.844a9.68 9.68 0 00-2.845 6.857c0 2.693 1.067 5.13 2.845 6.858a9.713 9.713 0 006.857 2.844c2.692 0 5.13-1.067 6.857-2.844a9.68 9.68 0 002.844-6.858c0-2.692-1.066-5.13-2.844-6.857a9.68 9.68 0 00-6.857-2.844zm5.537 15.187a7.748 7.748 0 01-5.536 2.286 7.748 7.748 0 01-5.537-2.286 7.748 7.748 0 01-2.285-5.536c0-2.134.863-4.115 2.285-5.537a7.747 7.747 0 015.537-2.285c2.184 0 4.114.863 5.536 2.285a7.747 7.747 0 012.286 5.537 7.747 7.747 0 01-2.286 5.536zm-3.135-1.066c-.493.494-1.276.909-2.482.909-1.026 0-1.786-.22-2.443-.776-.47-.407-.838-1.026-.838-1.707 0-.33.102-.58.282-.768.172-.18.43-.274.712-.274.306 0 .478.062.635.203.164.141.25.267.391.627.25.627.61.846 1.26.846.432 0 .745-.102.995-.352.36-.36.431-.948.431-1.661 0-1.277-.36-1.998-1.378-1.998-.564 0-.932.165-1.23.494-.125.14-.25.25-.407.344-.149.087-.297.126-.548.126-.282 0-.509-.063-.713-.267-.203-.203-.297-.517-.297-.87v-4.07c.003-.281.028-.611.282-.865.282-.282.657-.282.955-.282h3.915c.462 0 .642.016.838.118.267.14.447.423.447.806 0 .384-.18.666-.447.807-.196.102-.376.118-.838.118h-3.304v2.366c.321-.29.916-.549 1.691-.549.916 0 1.63.298 2.075.745.87.87 1.003 1.927 1.003 2.977 0 1.269-.165 2.13-.987 2.953z" transform="translate(0 .127)" id="Combined-Shape"/></g></svg>
